src/icon/animals/bear.svg

<svg enable-background="new 0 0 24 24" viewBox="0 0 24 24" xmlns="http://www.w3.org/2000/svg"><path d="m12 14.5c-2.1 0-3.8 1.1-3.8 2.4 0 1.5 1.8 4.6 3.8 4.6s3.8-3.1 3.8-4.6c0-1.3-1.7-2.4-3.8-2.4zm0 5c-1 0-2-.9-2-1.3s.9-.7 2-.7 2 .3 2 .7-1 1.3-2 1.3z"/><path d="m22 6c0-1.9-1.6-3.5-3.5-3.5-1.6 0-2.9 1.1-3.4 2.5-1-.3-2-.5-3.1-.5s-2.2.2-3.2.6c-.4-1.5-1.7-2.6-3.3-2.6-1.9 0-3.5 1.6-3.5 3.5 0 1.4.8 2.6 2 3.1-.6 1.2-1 2.5-1 3.9 0 3.1 1.8 5.9 4.5 7.3-.8-1.2-1.3-2.5-1.3-3.5 0-2.4 2.5-4.3 5.8-4.3s5.8 1.9 5.8 4.3c0 1-.5 2.3-1.3 3.5 2.7-1.5 4.5-4.2 4.5-7.3 0-1.4-.4-2.7-1-3.9 1.2-.5 2-1.7 2-3.1zm-17.3 2c-.4-.3-.7-.9-.7-1.5 0-1.1.9-2 2-2 .7 0 1.4.4 1.7 1-1.2.6-2.2 1.5-3 2.5zm3.3 3.5c-.6 0-1-.4-1-1s.4-1 1-1 1 .4 1 1-.4 1-1 1zm8 0c-.6 0-1-.4-1-1s.4-1 1-1c.5 0 1 .4 1 1s-.4 1-1 1zm3.3-3.5c-.8-1-1.8-1.9-3-2.5.3-.6 1-1 1.7-1 1.1 0 2 .9 2 2 0 .6-.3 1.2-.7 1.5z"/></svg>

<?xml version="1.0" encoding="utf-8"?>
<!-- Generator: Adobe Illustrator 18.0.0, SVG Export Plug-In . SVG Version: 6.00 Build 0)  -->
<!DOCTYPE svg PUBLIC "-//W3C//DTD SVG 1.1//EN" "http://www.w3.org/Graphics/SVG/1.1/DTD/svg11.dtd">
<svg version="1.1" id="Layer_1" xmlns="http://www.w3.org/2000/svg" xmlns:xlink="http://www.w3.org/1999/xlink" x="0px" y="0px"
	 viewBox="0 0 24 24" enable-background="new 0 0 24 24" xml:space="preserve">
<g>
	<path d="M12,14.5c-2.1,0-3.8,1.1-3.8,2.4c0,1.5,1.8,4.6,3.8,4.6s3.8-3.1,3.8-4.6C15.8,15.6,14.1,14.5,12,14.5z M12,19.5
		c-1,0-2-0.9-2-1.3s0.9-0.7,2-0.7s2,0.3,2,0.7C14,18.6,13,19.5,12,19.5z"/>
	<path d="M22,6c0-1.9-1.6-3.5-3.5-3.5c-1.6,0-2.9,1.1-3.4,2.5c-1-0.3-2-0.5-3.1-0.5S9.8,4.7,8.8,5.1C8.4,3.6,7.1,2.5,5.5,2.5
		C3.6,2.5,2,4.1,2,6c0,1.4,0.8,2.6,2,3.1c-0.6,1.2-1,2.5-1,3.9c0,3.1,1.8,5.9,4.5,7.3c-0.8-1.2-1.3-2.5-1.3-3.5
		c0-2.4,2.5-4.3,5.8-4.3s5.8,1.9,5.8,4.3c0,1-0.5,2.3-1.3,3.5c2.7-1.5,4.5-4.2,4.5-7.3c0-1.4-0.4-2.7-1-3.9C21.2,8.6,22,7.4,22,6z
		 M4.7,8C4.3,7.7,4,7.1,4,6.5c0-1.1,0.9-2,2-2c0.7,0,1.4,0.4,1.7,1C6.5,6.1,5.5,7,4.7,8z M8,11.5c-0.6,0-1-0.4-1-1s0.4-1,1-1
		s1,0.4,1,1S8.6,11.5,8,11.5z M16,11.5c-0.6,0-1-0.4-1-1s0.4-1,1-1c0.5,0,1,0.4,1,1S16.6,11.5,16,11.5z M19.3,8
		c-0.8-1-1.8-1.9-3-2.5c0.3-0.6,1-1,1.7-1c1.1,0,2,0.9,2,2C20,7.1,19.7,7.7,19.3,8z"/>
</g>
</svg>
